neru-light-classic/22x22/panel/copy-paused.svg

<svg xmlns="http://www.w3.org/2000/svg" width="22" height="22" x="0" y="0" version="1.1" xml:space="preserve" id="svg11"><defs id="defs3"><style id="current-color-scheme" type="text/css">.ColorScheme-Text{color:#1e333d}</style></defs><g transform="translate(-1 -1)" id="g9"><path class="ColorScheme-Text" d="M19.635 2.025l-5.617 6.817L16 9.998l4-7.646zM5 6.5L1 10l4.375-.625L7 19l3.393-2.301.607.178v-2.856l-1.252 1.071L6.5 7zm7 2.53L9 10l1 3 1-.75V12h.334L14 10zm3 1.57L13.363 12H17z" transform="translate(1 1)" id="path5" color="#1e333d" opacity=".3" fill="#1e333d" fill-opacity="1"/><path class="ColorScheme-Text" d="M13 14v6h3v-6zm4 0v6h3v-6z" id="path7" color="#1e333d" clip-rule="evenodd" fill="#1e333d" fill-rule="evenodd" fill-opacity="1"/></g></svg>

<?xml version="1.0" encoding="UTF-8" standalone="no"?>
<svg
   xmlns:dc="http://purl.org/dc/elements/1.1/"
   xmlns:cc="http://creativecommons.org/ns#"
   xmlns:rdf="http://www.w3.org/1999/02/22-rdf-syntax-ns#"
   xmlns:svg="http://www.w3.org/2000/svg"
   xmlns="http://www.w3.org/2000/svg"
   xmlns:sodipodi="http://sodipodi.sourceforge.net/DTD/sodipodi-0.dtd"
   xmlns:inkscape="http://www.inkscape.org/namespaces/inkscape"
   width="22"
   height="22"
   x="0"
   y="0"
   version="1.1"
   xml:space="preserve"
   id="svg11"
   sodipodi:docname="copy-paused.svg"
   inkscape:version="0.92.4 5da689c313, 2019-01-14"><metadata
   id="metadata15"><rdf:RDF><cc:Work
       rdf:about=""><dc:format>image/svg+xml</dc:format><dc:type
         rdf:resource="http://purl.org/dc/dcmitype/StillImage" /></cc:Work></rdf:RDF></metadata><sodipodi:namedview
   pagecolor="#ffffff"
   bordercolor="#666666"
   borderopacity="1"
   objecttolerance="10"
   gridtolerance="10"
   guidetolerance="10"
   inkscape:pageopacity="0"
   inkscape:pageshadow="2"
   inkscape:window-width="640"
   inkscape:window-height="515"
   id="namedview13"
   showgrid="false"
   inkscape:zoom="10.727273"
   inkscape:cx="11"
   inkscape:cy="11"
   inkscape:window-x="0"
   inkscape:window-y="28"
   inkscape:window-maximized="0"
   inkscape:current-layer="g9" />
 <defs
   id="defs3">
  <style
   id="current-color-scheme"
   type="text/css">
   .ColorScheme-Text { color:#1e333d; } .ColorScheme-Highlight { color:#3fb7ff; }
  </style>
 </defs>
 <g
   transform="translate(-1,-1.0007)"
   id="g9">
  <path
   style="color:#1e333d;opacity:0.3;fill:#1e333d;fill-opacity:1"
   class="ColorScheme-Text"
   d="M 19.635,2.0254 14.018,8.8418 16,9.998 20,2.3516 Z M 5,6.5 1,10 5.375,9.375 7,19 10.393,16.699 11,16.877 V 14.021 L 9.748,15.092 6.5,7 Z M 12,9.0293 9,10 l 1,3 1,-0.75 V 12 h 0.334 L 14,10 Z M 15,10.6 13.363,12 H 17 Z"
   transform="translate(1,1.0007)"
   id="path5"
   inkscape:connector-curvature="0" />
  <path
   style="color:#1e333d;clip-rule:evenodd;fill:#1e333d;fill-rule:evenodd;fill-opacity:1"
   class="ColorScheme-Text"
   d="m 13,14 v 6 h 3 v -6 z m 4,0 v 6 h 3 v -6 z"
   id="path7"
   inkscape:connector-curvature="0" />
 </g>
</svg>
